packages/sources/icons/src/vitamix/instagram-line.svg

<svg width="16" height="16" viewBox="0 0 16 16" fill="none" xmlns="http://www.w3.org/2000/svg">
<path fill-rule="evenodd" clip-rule="evenodd" d="M10.748 1.37333C10.0373 1.34 9.81133 1.33333 8 1.33333C6.18866 1.33333 5.96266 1.342 5.25199 1.37333C4.54133 1.40667 4.05866 1.518 3.63333 1.68333C3.18828 1.85048 2.78511 2.11282 2.45199 2.452C2.11253 2.78488 1.85015 3.18812 1.68333 3.63333C1.51799 4.05867 1.40666 4.54133 1.37333 5.252C1.33999 5.96267 1.33333 6.18867 1.33333 8C1.33333 9.81133 1.34199 10.0373 1.37333 10.748C1.40666 11.458 1.51799 11.942 1.68333 12.3667C1.85062 12.8116 2.11293 13.2148 2.45199 13.548C2.78501 13.8873 3.18821 14.1496 3.63333 14.3167C4.05866 14.4813 4.54199 14.5933 5.25199 14.6267C5.96266 14.66 6.18866 14.6667 8 14.6667C9.81133 14.6667 10.0373 14.658 10.748 14.6267C11.458 14.5933 11.942 14.4813 12.3667 14.3167C12.8115 14.1492 13.2146 13.8869 13.548 13.548C13.8874 13.2151 14.1498 12.8118 14.3167 12.3667C14.4813 11.9413 14.5933 11.458 14.6267 10.748C14.66 10.0373 14.6667 9.81133 14.6667 8C14.6667 6.18867 14.658 5.96267 14.6267 5.252C14.5933 4.542 14.4813 4.058 14.3167 3.63333C14.1493 3.18839 13.887 2.78526 13.548 2.452C13.1773 2.082 12.8067 1.85267 12.3667 1.68333C11.9413 1.518 11.458 1.40667 10.748 1.37333ZM7.99999 2.66667C6.35066 2.66667 6.08133 2.67133 5.31399 2.70533C4.79133 2.73 4.44066 2.8 4.11533 2.92667C3.82599 3.03867 3.61733 3.17267 3.39533 3.39533C3.18667 3.59693 3.02623 3.84305 2.92599 4.11533C2.79933 4.442 2.72933 4.792 2.70533 5.314C2.67066 6.05 2.66666 6.30733 2.66666 8C2.66666 9.64933 2.67133 9.91866 2.70533 10.686C2.72999 11.208 2.79999 11.5593 2.92599 11.884C3.03933 12.174 3.17266 12.3827 3.39399 12.604C3.61866 12.828 3.82733 12.962 4.11399 13.0727C4.44333 13.2 4.79399 13.2707 5.31399 13.2947C6.04999 13.3293 6.30733 13.3333 7.99999 13.3333C9.64933 13.3333 9.91866 13.3287 10.686 13.2947C11.2073 13.27 11.5587 13.2 11.884 13.074C12.1727 12.9613 12.3827 12.8273 12.604 12.606C12.8287 12.3813 12.9627 12.1727 13.0733 11.886C13.2 11.5573 13.2707 11.206 13.2947 10.686C13.3293 9.95 13.3333 9.69267 13.3333 8C13.3333 6.35067 13.3287 6.08133 13.2947 5.314C13.27 4.79267 13.2 4.44067 13.0733 4.11533C12.9729 3.84333 12.8127 3.59731 12.6047 3.39533C12.4031 3.18656 12.157 3.02611 11.8847 2.926C11.558 2.79933 11.2073 2.72933 10.686 2.70533C9.95 2.67067 9.69266 2.66667 7.99999 2.66667ZM11.5 5.33333C11.9602 5.33333 12.3333 4.96024 12.3333 4.5C12.3333 4.03976 11.9602 3.66667 11.5 3.66667C11.0398 3.66667 10.6667 4.03976 10.6667 4.5C10.6667 4.96024 11.0398 5.33333 11.5 5.33333ZM7.99999 4.66667C9.84094 4.66667 11.3333 6.15905 11.3333 8C11.3333 9.84095 9.84094 11.3333 7.99999 11.3333C6.15905 11.3333 4.66666 9.84095 4.66666 8C4.66666 6.15905 6.15905 4.66667 7.99999 4.66667ZM7.99999 6C6.89543 6 5.99999 6.89543 5.99999 8C5.99999 9.10457 6.89543 10 7.99999 10C9.10456 10 10 9.10457 10 8C10 6.89543 9.10456 6 7.99999 6Z" fill="#001018"/>
</svg>

<svg width="16" height="16" fill="none" xmlns="http://www.w3.org/2000/svg"><path fill-rule="evenodd" clip-rule="evenodd" d="M10.748 1.373c-.71-.033-.937-.04-2.748-.04-1.811 0-2.037.009-2.748.04-.71.034-1.193.145-1.619.31-.445.167-.848.43-1.181.769-.34.333-.602.736-.769 1.181-.165.426-.276.908-.31 1.619-.033.71-.04.937-.04 2.748 0 1.811.009 2.037.04 2.748.034.71.145 1.194.31 1.619.168.445.43.848.769 1.181.333.34.736.602 1.181.769.426.164.909.276 1.619.31.71.033.937.04 2.748.04 1.811 0 2.037-.009 2.748-.04.71-.034 1.194-.146 1.619-.31.444-.168.848-.43 1.181-.769.34-.333.602-.736.769-1.181.164-.426.276-.909.31-1.619.033-.71.04-.937.04-2.748 0-1.811-.009-2.037-.04-2.748-.034-.71-.146-1.194-.31-1.619a3.272 3.272 0 0 0-.769-1.181 3.25 3.25 0 0 0-1.181-.769c-.426-.165-.909-.276-1.619-.31zM8 2.667c-1.65 0-1.919.004-2.686.038-.523.025-.873.095-1.199.222a1.933 1.933 0 0 0-.72.468 1.936 1.936 0 0 0-.469.72c-.127.327-.197.677-.22 1.199-.035.736-.04.993-.04 2.686 0 1.65.005 1.919.04 2.686.024.522.094.873.22 1.198.113.29.247.499.468.72.225.224.433.358.72.469.33.127.68.198 1.2.222.736.034.993.038 2.686.038 1.65 0 1.919-.004 2.686-.038.521-.025.873-.095 1.198-.221a1.95 1.95 0 0 0 .72-.468 1.93 1.93 0 0 0 .47-.72c.126-.329.197-.68.22-1.2.035-.736.04-.993.04-2.686 0-1.65-.005-1.919-.04-2.686-.024-.521-.094-.873-.22-1.199a1.94 1.94 0 0 0-.47-.72 1.924 1.924 0 0 0-.72-.469c-.326-.127-.677-.197-1.198-.22-.736-.035-.993-.04-2.686-.04zm3.5 2.666a.833.833 0 1 0 0-1.666.833.833 0 0 0 0 1.666zM8 4.667a3.333 3.333 0 1 1 0 6.666 3.333 3.333 0 0 1 0-6.666zM8 6a2 2 0 1 0 0 4 2 2 0 0 0 0-4z" fill="#001018"/></svg>
